X: 1042
T: Hicaz-Uzzâl Seyir
C: Erol Bingöl
O: Turkey
F: http://compmusic.upf.edu/node/140
N: hicaz-uzzal--seyir--senginsemai--1--erol_bingol
N: makam= hicaz-uzzal
N: form= seyir
N: usul= senginsemai = 6/4
M: 6/4
L: 1/16
K: C _7/8B ^f ^c 
Q: 1/4=66
%%MIDI tuningsystem comma53
d4 d4 c4 d4 e8  | e6d2 g2^3/4fe e8 z4  | \
w:   |   | 
^3/4f4 g4 a4 =b4 g2f2 f2e2  | e8 e2d2 c2d2 e8  | 
w:   |   | 
d4 e4 ^3/4f4 g4 a8  | g4 a2g2 =f4 e4 d8  | \
w:   |   | 
g2=f2 e2d2 c4 d4 c2B2 B2A2  | 
w:   | 
A12 B2c2 A8  | |


